reflection-app/data/resources/icons/scalable/status/network-computer-symbolic.svg

<?xml version="1.0" encoding="UTF-8"?>
<svg xmlns="http://www.w3.org/2000/svg" height="16px" viewBox="0 0 16 16" width="16px"><g fill="#222222"><path d="m 5 8 v 1.5 c 0 0.277344 -0.222656 0.5 -0.5 0.5 h -0.5 c -0.550781 0 -1 0.449219 -1 1 c 0.007812 0.542969 0.457031 0.976562 1 0.96875 h 8 c 0.550781 0 1 -0.449219 1 -1 c -0.003906 -0.261719 -0.109375 -0.511719 -0.296875 -0.695312 c -0.1875 -0.179688 -0.441406 -0.28125 -0.703125 -0.277344 l -0.5 0.003906 c -0.132812 0 -0.257812 -0.054688 -0.355469 -0.148438 c -0.09375 -0.09375 -0.144531 -0.21875 -0.144531 -0.351562 v -1.5 z m 0 0"/><path d="m 7.992188 12 c -0.699219 0 -1.351563 0.371094 -1.714844 0.972656 h -3.285156 c -0.550782 0 -1 0.449219 -1 1 c 0 0.550782 0.449218 1 1 1 h 3.25 c 0.351562 0.640625 1.023437 1.035156 1.75 1.039063 c 0.730468 -0.003907 1.402343 -0.398438 1.753906 -1.039063 h 3.257812 c 0.554688 0 1 -0.449218 1 -1 c 0 -0.550781 -0.445312 -1 -1 -1 h -3.292968 c -0.359376 -0.601562 -1.011719 -0.972656 -1.71875 -0.972656 z m 0 1 c 0.558593 0 1.007812 0.449219 1.007812 1.007812 c 0 0.554688 -0.449219 1.003907 -1.007812 1.003907 c -0.554688 0 -1.003907 -0.449219 -1.003907 -1.003907 c 0 -0.558593 0.449219 -1.007812 1.003907 -1.007812 z m 0 0"/><path d="m 6.992188 10 h 2.007812 v 3 h -2.007812 z m 0 0"/><path d="m 4.5 0 c -1.367188 0 -2.5 1.132812 -2.5 2.5 v 4 c 0 1.367188 1.132812 2.5 2.5 2.5 h 7 c 1.367188 0 2.5 -1.132812 2.5 -2.5 v -4 c 0 -1.367188 -1.132812 -2.5 -2.5 -2.5 z m 0 2 h 7 c 0.292969 0 0.5 0.207031 0.5 0.5 v 4 c 0 0.292969 -0.207031 0.5 -0.5 0.5 h -7 c -0.292969 0 -0.5 -0.207031 -0.5 -0.5 v -4 c 0 -0.292969 0.207031 -0.5 0.5 -0.5 z m 0 0"/></g></svg>

<svg xmlns="http://www.w3.org/2000/svg" width="16" height="16" viewBox="0 0 16 16"><g fill="#222"><path d="M5 8v1.5c0 .277-.223.5-.5.5H4c-.55 0-1 .45-1 1a.985.985 0 0 0 1 .969h8c.55 0 1-.45 1-1a1 1 0 0 0-.297-.696A1 1 0 0 0 12 9.996l-.5.004a.51.51 0 0 1-.355-.148A.5.5 0 0 1 11 9.5V8zM7.992 12c-.699 0-1.351.371-1.715.973H2.992c-.55 0-1 .449-1 1s.45 1 1 1h3.25a2.01 2.01 0 0 0 1.75 1.039 2.01 2.01 0 0 0 1.754-1.04h3.258a1 1 0 1 0 0-2H9.71A2 2 0 0 0 7.992 12m0 1a1.005 1.005 0 1 1 .005 2.01A1.005 1.005 0 0 1 7.992 13m0 0"/><path d="M6.992 10H9v3H6.992zM4.5 0A2.52 2.52 0 0 0 2 2.5v4C2 7.867 3.133 9 4.5 9h7C12.867 9 14 7.867 14 6.5v-4C14 1.133 12.867 0 11.5 0zm0 2h7c.293 0 .5.207.5.5v4a.48.48 0 0 1-.5.5h-7a.48.48 0 0 1-.5-.5v-4c0-.293.207-.5.5-.5m0 0"/></g></svg>
